X:41
T:Si pas souffrir
C:Tielman Susato
B:Tielman Susato: "Danserye" (1551) no. 41
R:Pavane
Z:Transcribed by Frank Nordberg - http://www.musicaviva.com
F:http://abc.musicaviva.com/tunes/susato-tielman/susato-1551-41/susato-1551-41-4m.abc
M:4/2
L:1/2
K:Dm
V:1
A|A3F|G2EE|F2D2|E2zA|ddc>B|AG/F/ E/F/G/F/|E/D/D2^C|D2z::A|
A2G2|F3A|A2G2|F2zF|GABA|D>E F/G/A-|A/G/G2^F|G2z::F|
GB2A/G/|A2zF|GB2A/G/|A2zA|AGFE|D/C/D/E/ F/E/G/F/|E/D/D2^C|D2z:|
V:2
D|D3D|B,2CC|A,2B,2|G,2A,C|DB,CE|FDED|C/B,/A,/G,/A,2|F,2z::D|
D2D2|D2zD|D2B,>C|D2zD|DFFF|DB,/C/ D/E/F-|F/E/DD2|B,2z:|D|
D3E|F3D|D3E|F2zF|FEDC|B,2CD|B,G,A,2|F,2z:|
V:3
A,|A,3B,|G,3A,|F,3G,|E,2A,2|F,G,A,>G,|F,/G,/A,/B,/CB,/A,/|G,/F,/E,/D,/E,2D,2z::F,|
F,2B,2|A,2zA,|F,2G,2A,2zA,|B,CDC|B,DDD|CB,A,2|G,2z::A,|
B,2B,2|C3A,|B,2B,2|C2zC|C>B,A,>G,|F,/E,/F,/G,/A,B,/A,/|G,/F,/E,/D,/E,2|D,2z:|
V:4
D,|D,3D,|_E,2C,C,|D,2B,,2|C,2A,,A,,|B,,B,,A,,A,,|D,D,C,G,,|C,D,A,,2|D,2z::D,|
D,2G,,2|D,2zD,|D,2_E,2|D,2zD,|G,F,B,F,|G,2D,>E,|F,G,D,2|G,,2z::D,|
G,2G,2|F,2zD,|G,2G,2|F,2zF,|F,C,D,A,,|B,,2A,,G,,|B,,2A,,2|D,2z:|
W:
W:
W:  From Musica Viva - http://www.musicaviva.com
W:  the Internet center for free sheet music downloads.

